X:1
T: Glengariff Hornpipe
C:
R:Reel
Q: 232
K:G
M:4/4
L:1/8
|:((3DEF)|G2 D2 G2 D2|GA BG AG FD|BG Bd cB AG|E2 A2 Ac BA|
G2 D2 G2 D2|GA BG AG Fc|BA Bc dB AB|G2 GG G2:|
|:dc|BG Bd gf ga|ba gf gf ed|ef gf ed cB|cB AG FA dF|
G2 D2 G2 D2|GA BG AG Fc|BA Bc dB AB|G2 GG G2:|
